X: 271
T:Inviolata integra et casta es
N: Derived from Jos2405-Inviolata_integra_et_casta_es.krn
C: Josquin des Prez
%%abc-version 2.0
%%abcx-abcm2ps-target-version 5.9.1 (29 Sep 2008)
%%abc-creator hum2abc beta
%%abcx-conversion-date 2019/02/12 16:15:52
%%abc-edited-by Jesse Rodin
%%abc-edited-by Joel Chapman 2012/05/01
%%abcx-initial-encoding-date 2012/05/01/
%%humdrum-veritas 797939475
%%humdrum-veritas-data 3016574555
%%linebreak <none>
%%barnumbers 0
L: 1/4
M: 3/1
Q: 1/2=120
V: 1 clef=treble
V: 2 clef=treble
V: 3 clef=treble
V: 4 clef=treble
V: 5 clef=treble-8
V: 6 clef=treble-8
V: 7 clef=treble-8
V: 8 clef=treble-8
V: 9 clef=treble-8
V: 10 clef=bass
V: 11 clef=bass
V: 12 clef=bass
K: C
[V:1] c4c2c2d4 | 
[V:2] z12 | 
[V:3] G6A2B4 | 
[V:4] C3DE2F2D2G2 | 
[V:5] z12 | 
[V:6] z12 | 
[V:7] z12 | 
[V:8] z12 | 
[V:9] z12 | 
[V:10] z12 | 
[V:11] z12 | 
[V:12] z12 | 
[V:1] e4z4f4 | 
[V:2] z12 | 
[V:3] c2e3dc4B2 | 
[V:4] C3DE2F2D4 | 
[V:5] z12 | 
[V:6] z12 | 
[V:7] z12 | 
[V:8] z12 | 
[V:9] z12 | 
[V:10] z12 | 
[V:11] z12 | 
[V:12] z12 | 
[V:1] e4d4e4 | 
[V:2] z12 | 
[V:3] c4z2G2E3F | 
[V:4] C2zc2B/A/B2c2zC- | 
[V:5] z12 | 
[V:6] z12 | 
[V:7] z12 | 
[V:8] z12 | 
[V:9] z12 | 
[V:10] z12 | 
[V:11] z12 | 
[V:12] z12 | 
[V:1] d4c4d4 | 
[V:2] z12 | 
[V:3] G2G2A4G3F | 
[V:4] CB,/A,/B,2C2zc2B/A/B2 | 
[V:5] z12 | 
[V:6] z12 | 
[V:7] z12 | 
[V:8] z12 | 
[V:9] z12 | 
[V:10] z12 | 
[V:11] z12 | 
[V:12] z12 | 
[V:1] e2f4e4d2 | 
[V:2] z12 | 
[V:3] E2D2F2G2A4 | 
[V:4] c2zA2G/F/E2F4 | 
[V:5] z12 | 
[V:6] z12 | 
[V:7] z12 | 
[V:8] z12 | 
[V:9] z12 | 
[V:10] z12 | 
[V:11] z12 | 
[V:12] z12 | 
[V:1] e4z4c4 | 
[V:2] z12 | 
[V:3] G3c2B/A/B2c2A2- | 
[V:4] E2C2D4C2F2- | 
[V:5] z12 | 
[V:6] z12 | 
[V:7] z12 | 
[V:8] z12 | 
[V:9] z12 | 
[V:10] z12 | 
[V:11] z12 | 
[V:12] z12 | 
[V:1] c4e4f4 | 
[V:2] z12 | 
[V:3] AGF2E2zC2B,/A,/B,2 | 
[V:4] FGABc2zcd2d2 | 
[V:5] z12 | 
[V:6] z12 | 
[V:7] z12 | 
[V:8] z12 | 
[V:9] z12 | 
[V:10] z12 | 
[V:11] z12 | 
[V:12] z12 | 
[V:1] e4z4e4 | 
[V:2] z12 | 
[V:3] C2zc2B/A/B2c2zC- | 
[V:4] c2zCD2D2C2zE | 
[V:5] z12 | 
[V:6] z12 | 
[V:7] z12 | 
[V:8] z12 | 
[V:9] z12 | 
[V:10] z12 | 
[V:11] z12 | 
[V:12] z12 | 
[V:1] d4c4z2d2 | 
[V:2] z12 | 
[V:3] CB,/A,/B,2C2zc2B/A/B2 | 
[V:4] F2G2E2zEF2G2 | 
[V:5] z12 | 
[V:6] z12 | 
[V:7] z12 | 
[V:8] z12 | 
[V:9] z12 | 
[V:10] z12 | 
[V:11] z12 | 
[V:12] z12 | 
[V:1] e2f3ee4d2 | 
[V:2] z12 | 
[V:3] c2A3G/F/E2F4 | 
[V:4] C2D4C2A,2B,2 | 
[V:5] z12 | 
[V:6] z12 | 
[V:7] z12 | 
[V:8] z12 | 
[V:9] z12 | 
[V:10] z12 | 
[V:11] z12 | 
[V:12] z12 | 
[V:1] e4z4z4 | 
[V:2] G3AB2B2c4 | 
[V:3] E4z4z4 | 
[V:4] C4z4z4 | 
[V:5] e4d4c4 | 
[V:6] g12- | 
[V:7] z12 | 
[V:8] z12 | 
[V:9] C4G3FE2C2 | 
[V:10] z12 | 
[V:11] z12 | 
[V:12] z12 | 
[V:1] z12 | 
[V:2] B4e4dcBA | 
[V:3] z12 | 
[V:4] z12 | 
[V:5] d4c4d4 | 
[V:6] g4g4g2g2- | 
[V:7] z12 | 
[V:8] z12 | 
[V:9] G3FE2C2G3F | 
[V:10] z12 | 
[V:11] z12 | 
[V:12] z12 | 
[V:1] z12 | 
[V:2] G2c2c2B2c4 | 
[V:3] z12 | 
[V:4] z12 | 
[V:5] e4z4g4 | 
[V:6] g2fed4c4 | 
[V:7] z12 | 
[V:8] z12 | 
[V:9] E2C2G4C2zc | 
[V:10] z12 | 
[V:11] z12 | 
[V:12] z12 | 
[V:1] z12 | 
[V:2] z12 | 
[V:3] z12 | 
[V:4] z12 | 
[V:5] f4e2e4d2 | 
[V:6] z2d2efgea4 | 
[V:7] z12 | 
[V:8] z12 | 
[V:9] BAB2c4z2F2 | 
[V:10] z12 | 
[V:11] z12 | 
[V:12] z12 | 
[V:1] z12 | 
[V:2] e4d4c4 | 
[V:3] z12 | 
[V:4] z12 | 
[V:5] e3d/c/B4c4 | 
[V:6] g4z2g2e2c2 | 
[V:7] z12 | 
[V:8] z12 | 
[V:9] E2C2G2B2A4 | 
[V:10] z12 | 
[V:11] z12 | 
[V:12] z12 | 
[V:1] z12 | 
[V:2] d4c4d4 | 
[V:3] z12 | 
[V:4] z12 | 
[V:5] B4e4dcBA | 
[V:6] g3fe2c2g3f | 
[V:7] z12 | 
[V:8] z12 | 
[V:9] G4c4G4 | 
[V:10] z12 | 
[V:11] z12 | 
[V:12] z12 | 
[V:1] z12 | 
[V:2] e4z4g4 | 
[V:3] z12 | 
[V:4] z12 | 
[V:5] G2c4B2c4 | 
[V:6] e2c2g4z2e2 | 
[V:7] z12 | 
[V:8] z12 | 
[V:9] z2A2G3FE2C2 | 
[V:10] z12 | 
[V:11] z12 | 
[V:12] z12 | 
[V:1] z12 | 
[V:2] f4e2e4d2 | 
[V:3] z12 | 
[V:4] z12 | 
[V:5] z2d2efgaf4 | 
[V:6] fgafg2c2d4 | 
[V:7] z12 | 
[V:8] z12 | 
[V:9] D4C2c4B2 | 
[V:10] z12 | 
[V:11] z12 | 
[V:12] z12 | 
[V:1] z12 | 
[V:2] e4z4z4 | 
[V:3] z12 | 
[V:4] z12 | 
[V:5] e4z4z4 | 
[V:6] c4z4z4 | 
[V:7] c4c4e4 | 
[V:8] z12 | 
[V:9] c4z4z4 | 
[V:10] C6A,2G,2C2- | 
[V:11] G,4E,2F,2G,2A,2 | 
[V:12] C,6F,2E,2C,2 | 
[V:1] z12 | 
[V:2] z12 | 
[V:3] z12 | 
[V:4] z12 | 
[V:5] z12 | 
[V:6] z12 | 
[V:7] f4e2e4dc | 
[V:8] z12 | 
[V:9] z12 | 
[V:10] C2B,2C6B,A, | 
[V:11] F,4G,4C,4 | 
[V:12] D,4C,4z2C,2 | 
[V:1] z12 | 
[V:2] z12 | 
[V:3] z12 | 
[V:4] z12 | 
[V:5] z12 | 
[V:6] z12 | 
[V:7] d2d2c4d4 | 
[V:8] z12 | 
[V:9] z12 | 
[V:10] B,A,G,F,G,4A,4 | 
[V:11] G,2D,2E,F,G,4F,2 | 
[V:12] G,,4C,2E,2D,4 | 
[V:1] z12 | 
[V:2] z12 | 
[V:3] z12 | 
[V:4] z12 | 
[V:5] z12 | 
[V:6] z12 | 
[V:7] d4e4d4 | 
[V:8] z12 | 
[V:9] z12 | 
[V:10] G,3A,B,G,C4B,2 | 
[V:11] G,8z4 | 
[V:12] G,,4z2C,2G,,4 | 
[V:1] z12 | 
[V:2] z12 | 
[V:3] z12 | 
[V:4] z12 | 
[V:5] z12 | 
[V:6] z12 | 
[V:7] c2g3fe2defd | 
[V:8] z12 | 
[V:9] z12 | 
[V:10] C4z2C2A,3B, | 
[V:11] C,6E,2F,4 | 
[V:12] G,3F,E,D,C,2D,4 | 
[V:1] z12 | 
[V:2] z12 | 
[V:3] z12 | 
[V:4] z12 | 
[V:5] z12 | 
[V:6] z12 | 
[V:7] e2dcB2c4B2 | 
[V:8] z12 | 
[V:9] z12 | 
[V:10] C2B,A,G,4z2G,2 | 
[V:11] E,2E,4D,C,D,4 | 
[V:12] C,4z2C,2G,,4 | 
[V:1] z12 | 
[V:2] z12 | 
[V:3] z12 | 
[V:4] z12 | 
[V:5] z12 | 
[V:6] z12 | 
[V:7] c3de2d2f4 | 
[V:8] z12 | 
[V:9] z12 | 
[V:10] E,3F,G,2F,4_B,2 | 
[V:11] C,4z2D,3E,F,G, | 
[V:12] G,3F,E,C,D,2_B,,4 | 
[V:1] z12 | 
[V:2] z12 | 
[V:3] z12 | 
[V:4] z12 | 
[V:5] z12 | 
[V:6] z12 | 
[V:7] e2d3Gc4B2 | 
[V:8] z12 | 
[V:9] z12 | 
[V:10] G,2_B,3A,G,F,G,4 | 
[V:11] C,2G,3F,E,2D,4 | 
[V:12] C,2G,,2_B,,2C,2G,,4 | 
[V:1] g4e2g3fed | 
[V:2] e3fg2c2z2g2- | 
[V:3] c4c6BA | 
[V:4] G6G2G4 | 
[V:5] c12 | 
[V:6] c2BAG2c3de2- | 
[V:7] c2G3FEDC4 | 
[V:8] e12- | 
[V:9] G4E2C2E3F | 
[V:10] E,2C,2E,3F,G,4 | 
[V:11] C,8z2G,2 | 
[V:12] C,4z2G,2E,2C,2 | 
[V:1] e4z2e3def | 
[V:2] gfede2c3Bc2 | 
[V:3] G4z2G3FGA | 
[V:4] c2BAG2C2E2G2- | 
[V:5] G4g4e3d/c/ | 
[V:6] efg2c4z2G2 | 
[V:7] G3FEDE2C4 | 
[V:8] e12 | 
[V:9] G2C2z2G2C2G2- | 
[V:10] C,2G,3F,E,D,E,2C,2 | 
[V:11] E,2C,2E,3F,G,4 | 
[V:12] E,3F,G,4z2C,2 | 
[V:1] g4z2f2d3e | 
[V:2] d6d2B2G2 | 
[V:3] B4A4B3A | 
[V:4] GFG2D4z2G2 | 
[V:5] B2d3c/B/A2G2d2- | 
[V:6] d2Bcd6B2 | 
[V:7] z2G2A4z2G2 | 
[V:8] d12- | 
[V:9] GFG2z2d3ed2 | 
[V:10] G,4z2D,2G,4 | 
[V:11] z2G,,2D,4G,,2zG,- | 
[V:12] G,,2zG,2F,E,F,G,2G,,2 | 
[V:1] f4d4z2f2 | 
[V:2] z2d2B2d3cAB | 
[V:3] d2A2B2G2A3G/F/ | 
[V:4] D2D2G4F4 | 
[V:5] dcd2z2d2A2d2 | 
[V:6] z2d3cdef2d2 | 
[V:7] A4G4d4 | 
[V:8] d12 | 
[V:9] z2D3ED2A2F2 | 
[V:10] z2D,2D,4z2F,2 | 
[V:11] G,F,/E,/F,2G,2F,E,D,2D,2 | 
[V:12] D,4G,,4z4 | 
[V:1] e2g3fedc4 | 
[V:2] c2e3defg4 | 
[V:3] G4z2E3DEF | 
[V:4] z2E2G8 | 
[V:5] G2g2e2c2g3f | 
[V:6] gfedc4z2c2- | 
[V:7] z2G2c2BAG4 | 
[V:8] e12- | 
[V:9] c4z2c2c4- | 
[V:10] C,2C2G,4E,2G,2- | 
[V:11] C,8C,4 | 
[V:12] G,4E,2G,3F,E,D, | 
[V:1] z2c2G2c3dec | 
[V:2] z2e2g2gfedc2 | 
[V:3] G2C2c4z2c2 | 
[V:4] G4z2G2E2E2 | 
[V:5] edg2c2e3fg2 | 
[V:6] cde3defg4 | 
[V:7] E3FG4c4 | 
[V:8] e12 | 
[V:9] c4c2c3BAG | 
[V:10] G,F,E,D,C,3D,E,4 | 
[V:11] z2G,3F,E,D,C,4 | 
[V:12] C,8C,4 | 
[V:1] f4z2f3edc | 
[V:2] z2f3edcd2_B2- | 
[V:3] A2d3cd2A2z2 | 
[V:4] A2A3GFEF4 | 
[V:5] agfed4z2f2- | 
[V:6] d3ef4d4 | 
[V:7] FGA_BA2D2d4 | 
[V:8] f12- | 
[V:9] F3GA2_B2A2D2 | 
[V:10] z2A,2F,4z2D,2- | 
[V:11] z2D,3E,F,G,F,4 | 
[V:12] D,4D,2D,3C,_B,,A,, | 
[V:1] d2_B4d3efd | 
[V:2] Bcdef2_B2d4 | 
[V:3] d6_B6 | 
[V:4] z2D3CDEF4 | 
[V:5] fedcd4z2d2 | 
[V:6] z2f3edcd4 | 
[V:7] _B4z2_B3Ad2 | 
[V:8] f12 | 
[V:9] d4_B6_B2 | 
[V:10] D,C,D,E,F,4D,4 | 
[V:11] z2F,2D,4z2F,2 | 
[V:12] _B,,4z2B,,3C,D,B,, | 
[V:1] e4z2c3BAG | 
[V:2] c2g3fedc4 | 
[V:3] G2ABc4z2c2- | 
[V:4] GFEDE2C2E4 | 
[V:5] e3fgag2z2a2- | 
[V:6] z2c2c4z2c2 | 
[V:7] G2C2G2z2C3D | 
[V:8] e12- | 
[V:9] G2c2G4c4 | 
[V:10] G,3F,E,D,E,4C,2- | 
[V:11] C,2E,3F,G,2A,4 | 
[V:12] C,8A,,4- | 
[V:1] A4G4z2g2- | 
[V:2] z2c4BAG4 | 
[V:3] cBcde3dcBc2 | 
[V:4] z2C2G3FE3F | 
[V:5] age3fg2c4 | 
[V:6] c4z2c4G2 | 
[V:7] E2C2G4C2E2 | 
[V:8] e12 | 
[V:9] z2c2G4c4 | 
[V:10] C,D,E,F,E,6C,2 | 
[V:11] E,4z2G,3F,E,D,/C,/ | 
[V:12] A,,4C,8 | 
[V:1] g2fed4z2d2 | 
[V:2] z4z2g2g2fe | 
[V:3] B2d3cBAB4 | 
[V:4] GAB3AGFG4 | 
[V:5] z2g2g2fed2G2 | 
[V:6] B3cd4z2g2- | 
[V:7] z2D2G2D2z2D2 | 
[V:8] d12- | 
[V:9] z2B3ABcd4 | 
[V:10] G,4z2G,2G,4 | 
[V:11] D,4z2B,,3C,D,2 | 
[V:12] G,,8G,,4 | 
[V:1] dcBAG4g4 | 
[V:2] d2d2dcBAB2B2 | 
[V:3] G2B3AGFG4 | 
[V:4] z2G4G2G4 | 
[V:5] B3cd4G2g2 | 
[V:6] g2fed4z4 | 
[V:7] G2D2z2D2G4 | 
[V:8] d12 | 
[V:9] z2B3ABcd2G2 | 
[V:10] z2G,2G,4z2D,2 | 
[V:11] G,,8G,,4 | 
[V:12] z2G,4F,E,D,2G,2 | 
[V:1] e2c2e3fg4 | 
[V:2] c2g2e2c2e3f | 
[V:3] z2c2c4z2c2 | 
[V:4] E3FG4C4 | 
[V:5] g4z2g2g4 | 
[V:6] e6e2e4 | 
[V:7] z2E3FG2z2E2- | 
[V:8] c12- | 
[V:9] c4G4c4 | 
[V:10] E,2G,3F,E,D,C,3D, | 
[V:11] G,2E,2C,2E,3F,G,2- | 
[V:12] C,12- | 
[V:1] c4z2c3de2 | 
[V:2] g4c4z4 | 
[V:3] c6BAG2c2 | 
[V:4] z2C3DEFG4 | 
[V:5] z2g2f2c2e4 | 
[V:6] z2e2f2edc2g2 | 
[V:7] EFGEA2c2G4 | 
[V:8] c12 | 
[V:9] G4A2F2c4 | 
[V:10] E,4z2A,2E,2G,2 | 
[V:11] G,F,E,D,A,4z2G,2 | 
[V:12] C,4F,4E,4 | 
[V:1] f4z2f2fedc | 
[V:2] d2f3edcf4 | 
[V:3] A4d4z2_B2- | 
[V:4] F3GA2A2_B4 | 
[V:5] z2f4f2f4 | 
[V:6] z2d4d2d4 | 
[V:7] z2A4F2D2d2- | 
[V:8] d12- | 
[V:9] F3EDCF4D2- | 
[V:10] A,2F,3G,A,2D,2F,2- | 
[V:11] D,3E,F,4_B,,3C, | 
[V:12] D,4D,2D,4D,2 | 
[V:1] f4z2f2d2f2 | 
[V:2] z2f3edcd2d2 | 
[V:3] Bcd3c_BAB4 | 
[V:4] z2_B4AGF2B2 | 
[V:5] _B4d3ef2d2 | 
[V:6] z2f4f2f4 | 
[V:7] dc_BA_B2_B3AGF | 
[V:8] d12 | 
[V:9] DEFGF2D2z2F2 | 
[V:10] F,E,D,C,F,3E,D,C,D,2 | 
[V:11] D,6D,2D,4 | 
[V:12] _B,,4B,,2B,,4B,,2 | 
[V:1] c2g3fede2e2 | 
[V:2] c4G4z2c2- | 
[V:3] G4z2c3BAG | 
[V:4] z2c6G4 | 
[V:5] g2efg2c3def | 
[V:6] z2e3cefg2c2- | 
[V:7] EFGAG4z2G2 | 
[V:8] e12- | 
[V:9] c8c4 | 
[V:10] z2E,3F,G,A,G,2E,2- | 
[V:11] z2G,2G,4E,2C,2 | 
[V:12] C,4C,2C,4C,2 | 
[V:1] c4z2c2e3f | 
[V:2] cBAGA2A2G4 | 
[V:3] A3Bc4z2c2 | 
[V:4] z2c6G3A | 
[V:5] e4c4z2e2 | 
[V:6] cdefe4c4 | 
[V:7] c4z2c3BG2 | 
[V:8] e12 | 
[V:9] z2c4c2c4 | 
[V:10] E,2C,2E,2A,2G,4 | 
[V:11] z2C,3B,,C,3D,E,C, | 
[V:12] A,,8C,4 | 
[V:1] g2fed4G4 | 
[V:2] z2G3ABcd3e | 
[V:3] B2d2dcBAB4 | 
[V:4] B2B3AGFG2D2 | 
[V:5] g2d2g4z2g2 | 
[V:6] z2d2G2B3cd2 | 
[V:7] d4B6B2 | 
[V:8] d12- | 
[V:9] d2B3cd4G2 | 
[V:10] z2D,2D,4G,4 | 
[V:11] G,6F,E,D,4 | 
[V:12] G,,4z2G,,3A,,B,,C, | 
[V:1] z2d3ef2d2g2 | 
[V:2] fedcB2c3BBA | 
[V:3] z2G2B2A2d4 | 
[V:4] z2G4A2G4 | 
[V:5] f2g2d4z2g2- | 
[V:6] A2d2G2d2z2B2 | 
[V:7] A2B2G2d3cd2 | 
[V:8] d12 | 
[V:9] d4z4G4 | 
[V:10] z2D,4D,2D,4 | 
[V:11] z2G,3D,F,2D,2G,2- | 
[V:12] D,2G,,4F,,2G,,4 | 
[V:1] [e12g12]- | 
[V:2] c12- | 
[V:3] c12- | 
[V:4] G12- | 
[V:5] gfg3fedc3d | 
[V:6] G2c3Bc2G4 | 
[V:7] G12- | 
[V:8] c12- | 
[V:9] G2G6G4- | 
[V:10] E,2C,3D,E,F,E,4- | 
[V:11] G,F,E,D,C,8- | 
[V:12] C,12- | 
[V:1] [e12g12] |]  
[V:2] c12 |]  
[V:3] c12 |]  
[V:4] G12 |]  
[V:5] e12 |]  
[V:6] c12 |]  
[V:7] G12 |]  
[V:8] c12 |]  
[V:9] G12 |]  
[V:10] E,12 |]  
[V:11] C,12 |]  
[V:12] C,12 |]  



